src/ipa/raspberrypi/data/imx283.json
{
    "version": 2.0,
    "target": "bcm2835",
    "algorithms": [
        {
            "rpi.black_level":
            {
                "black_level": 50
            }
        },
        {
            "rpi.awb":
            {
                "priors": [
                    {
                        "lux": 0,
                        "prior":
                        [
                            2000, 1.0,
                            3000, 0.0,
                            13000, 0.0
                        ]
                    },
                    {
                        "lux": 800,
                        "prior":
                        [
                            2000, 0.0,
                            6000, 2.0,
                            13000, 2.0
                        ]
                    },
                    {
                        "lux": 1500,
                        "prior":
                        [
                            2000, 0.0,
                            4000, 1.0,
                            6000, 6.0,
                            6500, 7.0,
                            7000, 1.0,
                            13000, 1.0
                        ]
                    }
                ],
                "modes":
                {
                    "auto":
                    {
                        "lo": 2500,
                        "hi": 8000
                    },
                    "incandescent":
                    {
                        "lo": 2500,
                        "hi": 3000
                    },
                    "tungsten":
                    {
                        "lo": 3000,
                        "hi": 3500
                    },
                    "fluorescent":
                    {
                        "lo": 4000,
                        "hi": 4700
                    },
                    "indoor":
                    {
                        "lo": 3000,
                        "hi": 5000
                    },
                    "daylight":
                    {
                        "lo": 5500,
                        "hi": 6500
                    },
                    "cloudy":
                    {
                        "lo": 7000,
                        "hi": 8600
                    }
                },
                "bayes": 1,
                "ct_curve":
                [
                    2689.0, 1.1101, 0.4001,
                    4048.0, 0.8999, 0.6241,
                    6393.0, 0.7303, 0.7686,
                    7815.0, 0.6696, 0.8136
                ],
                "sensitivity_r": 1.0,
                "sensitivity_b": 1.0,
                "transverse_pos": 0.01413,
                "transverse_neg": 0.01
            }
        },
        {
            "rpi.lux":
            {
                "reference_shutter_speed": 30024,
                "reference_gain": 655.35,
                "reference_aperture": 1.0,
                "reference_lux": 328,
                "reference_Y": 13510
            }
        },
        {
            "rpi.agc":
            {
                "metering_modes":
                {
                    "centre-weighted":
                    {
                        "weights": [ 4, 4, 4, 2, 2, 2, 2, 1, 1, 1, 1, 0, 0, 0, 0 ]
                    }
                },
                "exposure_modes":
                {
                    "normal":
                    {
                        "shutter": [ 100, 15000, 30000, 60000, 120000 ],
                        "gain": [ 1.0, 2.0, 3.0, 4.0, 6.0 ]
                    }
                },
                "constraint_modes":
                {
                    "normal": [
                        {
                            "bound": "LOWER",
                            "q_lo": 0.98,
                            "q_hi": 1.0,
                            "y_target":
                            [
                                0, 0.4,
                                1000, 0.4
                            ]
                        }
                    ]
                },
                "y_target":
                [
                    0, 0.16,
                    1000, 0.165,
                    10000, 0.17
                ]
            }
        },
        {
            "rpi.ccm":
            {
                "ccms": [
                    {
                        "ct": 2689,
                        "ccm":
                        [
                            1.40623, 0.18099, -0.58723,
                            -0.89349, 2.43731, -0.54383,
                            -0.26978, -0.18437, 1.45415
                        ]
                    },
                    {
                        "ct": 4048,
                        "ccm":
                        [
                            1.58795, 0.12695, -0.71491,
                            -0.81724, 2.43436, -0.61713,
                            -0.22196, -0.33259, 1.55455
                        ]
                    },
                    {
                        "ct": 6393,
                        "ccm":
                        [
                            1.59065, -0.06208, -0.52857,
                            -0.57155, 2.00692, -0.43537,
                            -0.09551, -0.45449, 1.54999
                        ]
                    },
                    {
                        "ct": 7815,
                        "ccm":
                        [
                            1.69255, -0.04278, -0.64977,
                            -0.59177, 2.06676, -0.47499,
                            -0.16218, -0.39912, 1.56131
                        ]
                    }
                ]
            }
        },
        {
            "rpi.contrast":
            {
                "ce_enable": 1,
                "gamma_curve":
                [
                    0, 0,
                    1024, 5040,
                    2048, 9338,
                    3072, 12356,
                    4096, 15312,
                    5120, 18051,
                    6144, 20790,
                    7168, 23193,
                    8192, 25744,
                    9216, 27942,
                    10240, 30035,
                    11264, 32005,
                    12288, 33975,
                    13312, 35815,
                    14336, 37600,
                    15360, 39168,
                    16384, 40642,
                    18432, 43379,
                    20480, 45749,
                    22528, 47753,
                    24576, 49621,
                    26624, 51253,
                    28672, 52698,
                    30720, 53796,
                    32768, 54876,
                    36864, 57012,
                    40960, 58656,
                    45056, 59954,
                    49152, 61183,
                    53248, 62355,
                    57344, 63419,
                    61440, 64476,
                    65535, 65535
                ]
            }
        },
    ]
}